X: 40
M: C
L: 1/8
K: Am
|: vAua-a(v^f e)fe(ud | cd)e(u^f ga)gd | ve(ua-a)(v^fe)fe(ud |1 cA)BG A2BG :|2 cABG A2A2 |]
|: BE (3EEE c2cA | ded(uB g^f)ed | veua-a(vg e)^fe(d |cA)BG A2A2 :|
een o' da lot.


